X: 12351
T: Falls Of Altnarie, The
R: reel
M: 4/4
K: Dmajor
|:D2FA BAAB|dAfe dA3|B2GB geed|ceag ecAF|
D2FA BAAB|dAfe dA3|B2GB geed|1 cABc dAFE:|2 cABc defg||
|:ADFA BAAc|dAFA BAFA|B2GB eBBd|cAdA eAcB|
BAFA BAAc|dAFA BAFA|B2GB d2BG|1 AG E2 DEFG:|2 AG E2 D4|

